X:1
T:Title
%%score { ( 1 3 ) | ( 2 4 5 ) }
L:1/8
Q:1/4=136
M:2/2
K:Eb
V:1 treble nm="Grand Piano"
V:3 treble 
V:2 bass 
V:4 bass 
V:5 bass 
V:1
 G2 G2 [FA]2 [FA]2 | [GB]4 [GB]4 | G2 G2 B2 [Ge]2 | [Fd]8 | [DF]2 [DF]2 [EG]2 [EG]2 | [FA]4 [FA]4 | %6
w: Ira~D.~Sankey * * *||||||
 [Fd]2 [Ac]2 [GB]2 [DF]2 | G8 | G2 G2 [FA]2 [FA]2 | [GB]4 [GB]4 | [EG]2 [EG]2 [GB]2 e2 | d8 | %12
w: ||||||
 e2 B2 d2 [Ec]2 | B2 G2 E2 A2 | F8 | E8 | B2 [GB]2 [GB]2 [Ac]2 | [GB]3 G E4 | c2 B2 [Ad]2 [Ge]2 | %19
w: |||||||
 [Fd]8 | [Ge]2 [EB]2 [Ed]2 [Ec]2 | B2 G2 E2 A2 | F8 | E8 |] %24
w: |||||
V:2
 [E,B,E]2 [E,B,E]2 [E,B,]2 [E,B,]2 | [E,E]4 [E,E]4 | [E,B,E]2 [E,B,E]2 [E,G,E]2 [E,B,]2 | %3
 [B,,B,]8 | [B,,B,]2 [B,,B,]2 [B,,B,]2 [B,,B,]2 | [B,,B,]4 [B,,B,]4 | %6
 [B,,B,]2 [B,,B,]2 [B,,B,]2 [B,,B,]2 | [E,B,E]8 | [E,B,E]2 [E,B,E]2 [E,B,]2 [E,B,]2 | %9
 [E,E]4 [E,E]4 | [E,B,]2 [E,B,]2 [E,E]2[K:treble] [G,B,E]2 | [B,F]8 | %12
 [G,B,E]2 [E,G,E]2 [G,,B,E]2 [C,A,]2 | [E,G,E]2 [E,B,E]2 [A,C]2 [F,CE]2 | B,6 A,2 | [E,G,]8 | %16
 [E,G,E]2 [E,B,]2 [E,E]2 [E,E]2 | E3 [B,E] [E,G,]4 | [A,E]2 [G,B,E]2 [F,B,]2 [E,B,]2 | [B,,B,]8 | %20
 [E,B,]2 [E,G,]2 [A,,B,]2 [C,A,]2 | [E,G,E]2 [E,B,E]2 [A,C]2 [F,CE]2 | E4 z2 A,2 | [E,G,]8 |] %24
V:3
 x8 | x8 | x8 | x8 | x8 | x8 | x8 | x8 | x8 | x8 | x8 | z4 A,4 | x8 | x8 | z4 D2 E2 | x8 | x8 | %17
 x8 | x8 | x8 | x8 | x8 | z4 D2 E2 | x8 |] %24
V:4
 x8 | x8 | x8 | x8 | x8 | x8 | x8 | x8 | x8 | x8 | x6[K:treble] x2 | x8 | x8 | x8 | E4 B,,4 | x8 | %16
 x8 | E,4 z4 | x8 | x8 | x8 | x8 | B,8 | x8 |] %24
V:5
 x8 | x8 | x8 | x8 | x8 | x8 | x8 | x8 | x8 | x8 | x6[K:treble] x2 | x8 | x8 | x8 | x8 | x8 | x8 | %17
 x8 | x8 | x8 | x8 | x8 | z4 B,,4 | x8 |] %24

